**kern	**kern	**kern	**kern	**harm
*staff4	*staff3	*staff2	*staff1	*staff1
=1-	=1-	=1-	=1-	=1-
*clefF4	*clefG2	*clefG2	*clefG2	*
*k[b-]	*k[b-]	*k[b-]	*k[b-]	*
*M4/4	*M4/4	*M4/4	*M4/4	*
*	*	*	*MM100	*
*F:	*F:	*F:	*F:	*F:
8F\L	8f/L	8a/L	2.cc\	I
8F\	8f/	8a/	.	.
8F\	8f/	8a/	.	.
8F\J	8f/J	8a/J	.	.
8F\L	8f/L	8a/L	.	.
8F\	8f/	8a/	.	.
8F\	8f/	8a/	4ff\	.
8F\J	8f/J	8a/J	.	.
=2	=2	=2	=2	=2
1C	[1g	[1b-	8ff\L	V7
.	.	.	8ee\J	.
.	.	.	2ee\	.
.	.	.	16cc\LK	.
.	.	.	8.ccc\J	.
=3	=3	=3	=3	=3
!!linebreak:original
2.E\	2.g/]	2.b-\]	16ccc\LL	V65
.	.	.	16bb-\	.
.	.	.	16aa\	.
.	.	.	16gg\JJ	.
.	.	.	16ff\LL	.
.	.	.	16ee\	.
.	.	.	16dd\	.
.	.	.	16cc\JJ	.
.	.	.	8cc\L	.
.	.	.	8cc#\J	.
4E\	4g/	8.b-/L	8.dd\L	.
.	.	16g/Jk	16b-\Jk	.
=4	=4	=4	=4	=4
4F\	4c/	4f/	16b-/LL	I
.	.	.	16a/	.
.	.	.	16g/	.
.	.	.	16f/JJ	.
8r	8r	8r	[8f/L	.
*	*clefF4	*	*	*
8B-\	8F\	8d/	8f/J]	IV
16B-\LL	4F\	16d/LL	2r	.
16A\	.	16c/	.	.
*	*	*clefF4	*	*
16G\	.	16B-/	.	.
16F\JJ	.	16A/JJ	.	.
8E\L	8C\L	16A\LL	.	V7
.	.	16G\	.	.
8C\J	8E\J	16A\	.	.
.	.	16B-\JJ	.	.
=5	=5	=5	=5	=5
!!linebreak:original
8FF/L	8F/L	8A\L	[2.cc\	I
*	*clefG2	*clefG2	*	*
8F/	8f/	8a\	.	.
8F/	8f/	8a\	.	.
8F/J	8f/J	8a\J	.	.
8F\L	8f/L	8a/L	.	.
8F\	8f/	8a/	.	.
8F\	8f/	8a/	16cc\LL]	.
.	.	.	16aa\	.
8F\J	8f/J	8a/J	16gg\	.
.	.	.	16ff\JJ	.
=6	=6	=6	=6	=6
2C/	4g/	4g/	8ff\L	V7
.	.	.	8ee\J	.
.	16g/LL	16b-/LL	[2ee\	.
.	16f#/	16a/	.	.
.	16g/	16b-/	.	.
.	16f#/JJ	16a/JJ	.	.
*clefG2	*	*	*	*
16c/LL	4.g/	2b-\	.	.
16Bn/	.	.	.	.
16c/	.	.	.	.
16B/JJ	.	.	.	.
4c/	.	.	16ee\LL]	.
.	.	.	16bb-\	.
.	8e/	.	16aa\	.
.	.	.	16gg\JJ	.
=7	=7	=7	=7	=7
!!pagebreak:original
2c/	4f/	4a/	8gg\L	I64
.	.	.	8ff\J	.
.	16f/LL	16a/LL	[2ff\	.
.	16e/	16g#/	.	.
.	16f/	16a/	.	.
.	16e/JJ	16g#/JJ	.	.
16c/LL	4.f/	2a/	.	.
16Bn/	.	.	.	.
16c/	.	.	.	.
16B/JJ	.	.	.	.
4c/	.	.	16ff\LL]	.
.	.	.	16ccc\	.
.	8f#/	.	16bb-\	.
.	.	.	16aa\JJ	.
=8	=8	=8	=8	=8
4c/	4g/	4b-\	16aa\LL	V7
.	.	.	16gg\	.
.	.	.	16ff#\	.
.	.	.	16gg\JJ	.
16c/LL	2g/	2e/	[4bb-\	.
16d-/	.	.	.	.
16c/	.	.	.	.
16d-/JJ	.	.	.	.
4.c/	.	.	8.bb-\L]	.
.	.	.	32gg\LL	.
.	.	.	32ee\JJJ	.
.	8g/L	8e/L	8cc\L	.
*clefF4	*	*	*	*
8E\	8c/J	8g/J	8b-\J	V65
=9	=9	=9	=9	=9
!!linebreak:original
4F\	4c/	4f/	16b-/LL	I
.	.	.	16a/	.
.	.	.	16g/	.
.	.	.	16f/JJ	.
4r	8r	8r	4f/	.
.	8b-\	8dd\	.	.
4r	16b-/LL	16dd\LL	4r	.
.	16a/	16cc\	.	.
.	16g/	16b-\	.	.
.	16f/JJ	16a\JJ	.	.
8r	8e/L	8g/L	8r	.
8C/	8G/J	8e/J	8bb-\	V7
=10	=10	=10	=10	=10
4F\	4A/	4f/	16bb-\LL	I
.	.	.	16aa\	.
.	.	.	16gg\	.
.	.	.	16ff\JJ	.
4r	8r	8r	4ff'\	.
.	8b-\	8dd\	.	.
4r	16b-/LL	16dd\LL	4r	.
.	16a/	16cc\	.	.
.	16g/	16b-\	.	.
.	16f/JJ	16a\JJ	.	.
8r	8e/L	8g/L	8r	.
8C/	8G/J	8e/J	8bb-\	V7
=11	=11	=11	=11	=11
4F\	4A/	4f/	16bb-\LL	I
.	.	.	16aa\	.
.	.	.	16gg\	.
.	.	.	16ff\JJ	.
4r	8r	8r	4ff'\	.
.	8b-\	8dd\	.	.
4r	16b-/LL	16dd\LL	2r	IV
.	16a/	16cc\	.	.
.	16g/	16b-\	.	.
.	16f/JJ	16a\JJ	.	.
8r	8e/L	8g/L	.	V7/vi
8A\	8e/J	8cc#/J	.	.
=12	=12	=12	=12	=12
!!linebreak:original
8D/L	8f/L	8dd/L	2.aa\	vi
*clefG2	*	*	*	*
8d/	8d/	8f/	.	.
8d/	8d/	8f/	.	.
8d/J	8d/J	8f/J	.	.
8d\L	8d/L	8f/L	.	.
8d\	8d/	8f/	.	.
*clefF4	*	*	*	*
8d\	8d/	8f/	16gg\LL	.
.	.	.	16ff\	.
8d\J	8d/J	8f/J	16ee\	.
.	.	.	16dd\JJ	.
=13	=13	=13	=13	=13
[1A	1e	1g	8dd\L	V7/vi
.	.	.	8cc#\J	.
.	.	.	4cc#\	.
.	.	.	16cc#\LL	.
.	.	.	16ee\	.
.	.	.	16dd\	.
.	.	.	16ff\JJ	.
.	.	.	16ee\LL	.
.	.	.	16gg\	.
.	.	.	16ff\	.
.	.	.	16aa\JJ	.
=14	=14	=14	=14	=14
1A]	8A/L	16c#/LL	[2gg\	V7/vi
.	.	16e/	.	.
.	8Bn/	16d/	.	.
.	.	16f/JJ	.	.
.	8c#/	16e/LL	.	.
.	.	16g/	.	.
.	8d/J	16f/	.	.
.	.	16a/JJ	.	.
.	4.e/	4.g/	8gg/L]	.
.	.	.	8B-/	.
.	.	.	8A/	.
.	8c#/	8e/	8gg/J	.
=15	=15	=15	=15	=15
!!pagebreak:original
*C:	*C:	*C:	*C:	*C:
4D\	4d/	4f/	16gg\LL	ii
.	.	.	16ff\	.
.	.	.	16ee\	.
.	.	.	16dd\JJ	.
4r	8r	8r	4dd'\	.
.	8f/	8a/	.	.
4r	16f/LL	16a/LL	2r	.
.	16e/	16g/	.	.
.	16d/	16f/	.	.
.	16c/JJ	16e/JJ	.	.
8r	8Bn/L	8d/L	.	V7
8G\	8f/J	8bn/J	.	.
=16	=16	=16	=16	=16
8C/L	8e/L	8cc/L	2.gg\	I
*clefG2	*	*	*	*
8c/	8c/	8e/	.	.
8c/	8c/	8e/	.	.
8c/J	8c/J	8e/J	.	.
8c/L	8c/L	8e/L	.	.
8c/	8c/	8e/	.	.
8c/	8c/	8e/	16ff\LL	.
.	.	.	16ee\	.
8c/J	8c/J	8e/J	16dd\	.
.	.	.	16cc\JJ	.
=17	=17	=17	=17	=17
*clefF4	*	*	*	*
8G\L	1d	1f	8cc\L	V7
8G\	.	.	8bn\J	.
8G\	.	.	2b\	.
8G\J	.	.	.	.
8G\L	.	.	.	.
8G\	.	.	.	.
8G\	.	.	16gg\LL	.
.	.	.	16ff\	.
8G\J	.	.	16ee\	.
.	.	.	16dd\JJ	.
=18	=18	=18	=18	=18
!!linebreak:original
8G\L	[1e	1g	8dd\L	I64
8G\	.	.	8cc\J	.
8G\	.	.	[4cc\	.
8G\J	.	.	.	.
8G\L	.	.	16cc\LL]	.
.	.	.	16gg\	.
8G\	.	.	16ff#\	.
.	.	.	16gg\JJ	.
8G\	.	.	16aa\LL	.
.	.	.	16gg\	.
8G\J	.	.	16ffn\	.
.	.	.	16ee\JJ	.
=19	=19	=19	=19	=19
8A\L	4e/]	2.f#/	8dd\L	V43/V
8A\	.	.	8cc\J	.
8A\	2d/	.	2ccc\	.
8A\J	.	.	.	.
8A\L	.	.	.	.
8A\	.	.	.	.
8A\	4d/	4cc\	4ff#\	.
8A\J	.	.	.	.
=20	=20	=20	=20	=20
4G\	4d/	16bn/LL	[1gg	V
.	.	16g/	.	.
.	.	16g/	.	.
.	.	16g/JJ	.	.
4r	8r	16g/LL	.	.
.	.	16g/	.	.
.	8f/	16b/	.	.
.	.	16g/JJ	.	.
2r	4e/	16cc/LL	.	.
.	.	16g/	.	.
.	.	16g/	.	.
.	.	16g/JJ	.	.
.	4Bn/	16dd\LL	.	.
.	.	16g\	.	.
.	.	16g\	.	.
.	.	16g\JJ	.	.
=21	=21	=21	=21	=21
!!linebreak:original
4r	4c/	16ee\LL	1gg_	I
.	.	16g\	.	.
.	.	16g\	.	.
.	.	16g\JJ	.	.
8r	4r	16g/LL	.	.
.	.	16g/	.	.
*clefG2	*	*	*	*
8f/	.	16bn/	.	V42
.	.	16g/JJ	.	.
4e/	2r	16cc/LL	.	I6
.	.	16g/	.	.
.	.	16g/	.	.
.	.	16g/JJ	.	.
4Bn/	.	16dd\LL	.	V6
.	.	16g\	.	.
.	.	16g\	.	.
.	.	16g\JJ	.	.
=22	=22	=22	=22	=22
4c/	4r	16ee-\LL	2.gg\]	i
.	.	16g\	.	.
.	.	16g\	.	.
.	.	16g\JJ	.	.
4r	8r	16g/LL	.	.
.	.	16g/	.	.
.	8f/	16bn/	.	.
.	.	16g/JJ	.	.
2r	4e-/	16cc/LL	.	.
.	.	16g/	.	.
.	.	16g/	.	.
.	.	16g/JJ	.	.
.	4Bn/	16dd\LL	4ff\	V65
.	.	16g\	.	.
.	.	16g\	.	.
.	.	16g\JJ	.	.
=23	=23	=23	=23	=23
!!pagebreak:original
*clefF4	*	*	*	*
16c\LL	[1c	[1cc	[1ee-	i
16G\	.	.	.	.
16G\	.	.	.	.
16G\JJ	.	.	.	.
16G\LL	.	.	.	.
16E-\	.	.	.	.
16E-\	.	.	.	.
16E-\JJ	.	.	.	.
16E-\LL	.	.	.	.
16C\	.	.	.	.
16C\	.	.	.	.
16C\JJ	.	.	.	.
16C/LL	.	.	.	.
16AA-/	.	.	.	-VI
16AA-/	.	.	.	.
16AA-/JJ	.	.	.	.
=24	=24	=24	=24	=24
2.AA-/	8c/L]	8cc/L]	8ee-\L]	-VI
.	8c/	8f#/	16ee-\L	Gr
.	.	.	16dd\JJ	.
.	8c/	8f#/	16ee-\LL	.
.	.	.	16dd\	.
.	8c/J	8f#/J	16ee-\	.
.	.	.	16dd\JJ	.
.	8c/L	8f#/L	4ee-\	.
.	8c/	8f#/	.	.
4A-\	8c/	8f#/	4c/	.
.	8c/J	8f#/J	.	.
=25	=25	=25	=25	=25
!!linebreak:original
8G\L	8d/L	8g/L	16Bn/LL	V7
.	.	.	16bn/	.
8G\	8Bn/	8g/	16d/	.
.	.	.	16dd/JJ	.
8G\	8B/	8g/	16f\LL	.
.	.	.	16ff\	.
8G\J	8B/J	8g/J	16g\	.
.	.	.	16gg\JJ	.
8F\L	8bn\L	8g/L	16b\LL	V42
.	.	.	16bbn\	.
8F\	8b\	8g/	16dd\	.
.	.	.	16ddd\JJ	.
8F\	8b\	8g/	16ccc\LL	.
.	.	.	16bb\	.
8F\J	8b\J	8g/J	16aa\	.
.	.	.	16gg\JJ	.
=26	=26	=26	=26	=26
4E\	4cc\	16c/LL	4ccc\	I6
.	.	16cc/	.	.
.	.	16e/	.	.
.	.	16cc/JJ	.	.
4r	4r	16g/LL	4eee\	.
.	.	16cc/	.	.
.	.	16e/	.	.
.	.	16cc/JJ	.	.
4E\	4e/	16c/LL	4.ggg\	.
.	.	16cc/	.	.
.	.	16e/	.	.
.	.	16cc/JJ	.	.
4r	4r	16g/LL	.	.
.	.	16cc/	.	.
.	.	16e/	16fff\LL	.
.	.	16cc/JJ	16eee\JJ	.
=27	=27	=27	=27	=27
!!linebreak:original
4F\	4f/	16d/LL	4ddd\	ii65
.	.	16cc/	.	.
.	.	16f/	.	.
.	.	16cc/JJ	.	.
4r	4r	16a/LL	4fff\	.
.	.	16cc/	.	.
.	.	16f/	.	.
.	.	16cc/JJ	.	.
4F\	4f/	16d/LL	4.aaa\	.
.	.	16cc/	.	.
.	.	16f/	.	.
.	.	16cc/JJ	.	.
8r	8r	16a/LL	.	.
.	.	16cc/	.	.
8F#\	8f#/	16f#/	8f#/	vii/V
.	.	16cc/JJ	.	.
=28	=28	=28	=28	=28
4G\	8g/L	8g/L	2g/	C64
.	8e/J	8g/J	.	.
4r	16f/LL	16a/LL	.	.
.	16e/	16g/	.	.
.	16d/	16f/	.	.
.	16c/JJ	16e/JJ	.	.
4G\	8Bn/L	8d/L	2dd\	V7
.	8d/J	8f/J	.	.
4r	16e/LL	16g/LL	.	.
.	16d/	16f/	.	.
.	16c/	16e/	.	.
.	16B/JJ	16d/JJ	.	.
=29	=29	=29	=29	=29
!!pagebreak:original
2A\	2c/	2f#/	8cc\L	viio6/V
.	.	.	8cc\J	.
.	.	.	16bn\LL	.
.	.	.	16cc\	.
.	.	.	16dd\	.
.	.	.	16cc\JJ	.
2G\	2e/	2c/	4gg\	I64
.	.	.	16ff\LL	.
.	.	.	16ee\	.
.	.	.	16dd\	.
.	.	.	16cc\JJ	.
=30	=30	=30	=30	=30
2A\	2c/	2f#/	8cc\L	viio6/V
.	.	.	8cc\J	.
.	.	.	16bn\LL	.
.	.	.	16cc\	.
.	.	.	16dd\	.
.	.	.	16cc\JJ	.
2G\	2e/	2c/	4gg\	I64
.	.	.	16ff\LL	.
.	.	.	16ee\	.
.	.	.	16dd\	.
.	.	.	16cc\JJ	.
=31	=31	=31	=31	=31
2A\	2c/	2f#/	8cc\L	viio6/V
.	.	.	8cc\J	.
.	.	.	16bn\LL	.
.	.	.	16cc\	.
.	.	.	16dd\	.
.	.	.	16cc\JJ	.
2r	2r	2r	4ccc\	.
.	.	.	4r	.
=32	=32	=32	=32	=32
!!linebreak:original
*	*clefF4	*	*	*
2r	[1c	2r	2e/	I
2F#\	.	2e/	[2a/	viiom7/V
=33	=33	=33	=33	=33
1G	4c\]	1d	4a/]	V7
.	2Bn\	.	4d/	.
.	.	.	4g/	.
.	4B\	.	4f/	.
=34	=34	=34	=34	=34
4A\	4c\	4c/	4e/	vi
4E\	4G\	4c/	16cc\LL	I6
.	.	.	16dd\	.
.	.	.	16ee\	.
.	.	.	16cc\JJ	.
4F\	4A\	4c/	16a\LL	IV
.	.	.	16bn\	.
.	.	.	16cc\	.
.	.	.	16a\JJ	.
4r	4r	4r	16f/LL	.
.	.	.	16g/	.
.	.	.	16a/	.
.	.	.	16f/JJ	.
=35	=35	=35	=35	=35
4G\	8r	8r	2G/	C64
*	*clefG2	*	*	*
.	8e/	8g/	.	.
4r	16f/LL	16a/LL	.	.
.	16e/	16g/	.	.
.	16d/	16f/	.	.
.	16c/JJ	16e/JJ	.	.
4G\	8Bn/L	8d/L	2dd\	V7
.	8d/J	8f/J	.	.
4r	16e/LL	16g/LL	.	.
.	16d/	16f/	.	.
.	16c/	16e/	.	.
.	16B/JJ	16d/JJ	.	.
=36	=36	=36	=36	=36
!!linebreak:original
4C/	8c/L	8e/L	[2cc\	I
.	8e/J	8g/J	.	.
4r	16f/LL	16a/LL	.	.
.	16e/	16g/	.	.
.	16d/	16f/	.	.
.	16c/JJ	16e/JJ	.	.
2r	4f/	4a/	8cc\L]	IV
.	.	.	8ff\J	.
.	4d/	4bn\	16gg\LL	V43
.	.	.	16ff\	.
.	.	.	16ee\	.
.	.	.	16dd\JJ	.
=37	=37	=37	=37	=37
4C/	8e/L	8cc/L	[2cc\	I
.	8e/J	8g/J	.	.
4r	16f/LL	16a/LL	.	.
.	16e/	16g/	.	.
.	16d/	16f/	.	.
.	16c/JJ	16e/JJ	.	.
2r	4f/	4a/	8cc\L]	IV
.	.	.	8ff\J	.
.	4d/	4bn\	16gg\LL	V43
.	.	.	16ff\	.
.	.	.	16ee\	.
.	.	.	16dd\JJ	.
=38	=38	=38	=38	=38
4C/	8e/L	8cc/L	1cc	I
.	8e/J	8g/J	.	.
4r	16f/LL	16a/LL	.	.
.	16e/	16g/	.	.
.	16d/	16f/	.	.
.	16c/JJ	16e/JJ	.	.
2r	8e/L	8g/L	.	.
.	8g/J	8b-/J	.	.
.	16a/LL	16cc/LL	.	.
.	16g/	16b-/	.	.
.	16f/	16a/	.	.
.	16e/JJ	16g/JJ	.	.
*-	*-	*-	*-	*-
